Origami/64x64/apps/shutter.svg

<svg width="64" height="64" version="1.1" viewBox="0 0 64 64" xmlns="http://www.w3.org/2000/svg">
 <path d="m50.003182 5.0049993c-7.825229 0.0912774-19.897979 2.2839545-23.671702 6.8163567h-0.0118c-3.011114 4.412566-3.391241 21.681015-2.609275 20.617039 6.408522-8.766613 21.7673-19.594033 30.941182-23.94514 4.952922-2.3597895 1.437885-3.5593746-4.648405-3.4882562zm-29.230256 9.8632097c-1.977003 0.338541-9.913294 5.853179-8.085879 15.761605l0.0039 4e-3c1.734634 5.062151 12.845441 11.79424 12.460848 10.527267-3.155788-10.448676-4.29724-17.211495-3.945284-26.120904 0.0066-0.165127-0.151159-0.220228-0.433591-0.171873zm21.671717 4.437469c-5.296127 0.384347-14.608916 9.473885-13.300683 9.421806 10.832819-0.37662 17.598954 0.246538 26.050591 2.894511 1.253857 0.392077-1.353726-11.425938-12.749908-12.316317zm-5.730426 9.460867c-0.275548 0.0152-0.394173 0.09174-0.30078 0.226563 6.190459 8.963447 9.339862 15.031813 11.722571 23.624828 0.353845 1.274701 8.78609-7.346952 3.33982-17.476437-2.791886-3.743241-12.794371-6.475967-14.757705-6.374954h-4e-3zm-28.683386 1.70702c-1.018752-0.135079-3.4087265 11.080592 6.1093303 16.781128 4.921256 2.022118 17.263548-1.961232 16.066291-2.5117-9.878901-4.488443-15.670312-8.082983-22.085778-14.222552-0.029568-0.02854-0.056981-0.04252-0.089843-0.04688zm31.909924 5.476522c-0.0612-0.016-0.104819 0.014-0.124999 0.09374-2.742302 10.570333-5.274155 16.931027-10.20305 24.339667-0.736548 1.093152 11.243379 1.962938 15.343639-8.79681l4e-3 4e-3c1.07781-4.902695-4.101414-15.398319-5.019496-15.640513zm-3.011696 6.753857c-0.02504-0.0062-0.05306-2e-3 -0.08984 0.0156-9.780843 4.714538-16.233066 6.8742-25.038881 7.847599-1.300011 0.150659 5.767792 9.93989 16.570192 6.160112l0.0118-4e-3c4.554995-2.411729 9.326995-13.822594 8.55072-14.019431h-4e-3z" style="opacity:.2"/>
 <path d="m50.001326 4.0028473c-7.825229 0.091277-19.897805 2.284191-23.671528 6.8165937h-0.0082c-3.011194 4.412565-3.394537 21.681334-2.612571 20.617358 6.408522-8.766612 21.768694-19.59398 30.942576-23.945087 4.952922-2.3597893 1.436153-3.5598436-4.650137-3.4887251zm-7.555777 14.300693c-5.296127 0.384348-14.61154 9.474578-13.303307 9.422498 10.832819-0.376619 17.599128 0.247724 26.050765 2.895697 1.253857 0.392077-1.350998-11.427674-12.74718-12.318055zm-5.729334 9.463518c-0.279384 0.0146-0.395109 0.08854-0.30112 0.224218 6.190459 8.963447 9.336384 15.034277 11.719093 23.627293 0.353845 1.274701 8.788314-7.347743 3.342044-17.477225-2.793138-3.744919-12.803153-6.477661-14.760155-6.374062zm3.222732 7.183106c-0.0612-0.016-0.104599 0.0132-0.124779 0.09298-2.742302 10.570333-5.273765 16.932637-10.20266 24.341278-0.736548 1.093152 11.246025 1.960657 15.346285-8.799091l0.0028 0.0054c1.07781-4.902694-4.102898-15.399668-5.02098-15.641862zm-3.00842 6.753735c-0.02504-0.0062-0.05546-0.0013-0.09224 0.0164-9.780843 4.714537-16.23242 6.874132-25.038235 7.847531-1.300011 0.150659 5.76753 9.937406 16.56993 6.157627l0.0108-0.0028c4.554995-2.411728 9.326803-13.822464 8.550528-14.019298z" style="fill:#37a0f2"/>
 <path d="m20.771303 13.868436c-1.977003 0.33854-9.911403 5.852434-8.083988 15.76086l0.0028 0.0054c1.734634 5.062152 12.847043 11.791389 12.46245 10.524416-3.155788-10.448676-4.296239-17.208431-3.944284-26.11784 0.0066-0.165127-0.154319-0.220622-0.436748-0.172267zm-12.741764 15.604065c-1.018752-0.135079-3.4062111 11.082302 6.1118457 16.782839 4.921256 2.022117 17.261618-1.962338 16.064361-2.512806-9.8789-4.488444-15.668516-8.081325-22.083982-14.220895-0.029568-0.02854-0.059372-0.04486-0.092233-0.04922z" style="fill:#4f4f4f"/>
 <path d="m50.001953 4.0019531c-7.825229 0.091277-19.898152 2.2859567-23.671875 6.8183589h-0.007812c-2.304817 3.377449-3.067673 14.261432-2.949219 18.716797-0.001285-4.893415 0.793502-14.55979 2.949219-17.71875h0.007812c3.773723-4.5324025 15.846646-6.7251289 23.671875-6.8164059 3.409906-0.0398448 6.010336 0.3200156 6.769531 1.0585938 1.073861-1.4075538-2.073359-2.1115156-6.769531-2.0566407v-0.0019531zm-7.556641 14.300781c-5.296126 0.384348-14.610967 9.475908-13.302734 9.423828 0.15735-0.00547 0.29552-0.006673 0.451172-0.011718 1.96556-2.361223 8.658827-8.107836 12.851562-8.41211 9.002817 0.703388 12.507024 8.208488 12.96875 11.144532 0.518321-1.379856-2.535984-11.329422-12.96875-12.144532zm-5.580078 10.353516c0.03026 0.044212 0.055828 0.086785 0.085938 0.130859 2.318015 0.047604 11.808017 2.710178 14.52539 6.353516 1.196516 2.225392 1.721087 4.378192 1.810547 6.369141 0.06195-2.263032-0.409871-4.764033-1.810547-7.369141-1.649092-2.211032-5.800082-4.04778-9.33789-5.177734-1.685931-0.156532-3.423628-0.263259-5.273438-0.306641zm3.074219 6.292969c-0.0612-0.016-0.10482 0.01397-0.125 0.09375-2.742302 10.570333-5.27423 16.933156-10.203125 24.341797-0.101037 0.149955 0.054439 0.292265 0.378906 0.404296 4.670044-7.15574 7.156446-13.463035 9.824219-23.746093 0.02018-0.07978 0.0638-0.10975 0.125-0.09375 0.803322 0.211919 4.870221 8.273393 5.152344 13.570312 0.260173-5.209134-4.296381-14.344505-5.152344-14.570312zm-3.009765 6.753906c-0.02504-0.0062-0.055017-1.22e-4 -0.091797 0.017578-9.780843 4.714537-16.231295 6.874257-25.03711 7.847656-0.248152 0.028759-0.188778 0.410871 0.140625 0.980469 8.732027-0.981039 15.16927-3.139438 24.896485-7.828125 0.007837-0.003772 0.012261-0.00128 0.019531-0.003906 0.166007-0.595939 0.20792-0.979771 0.074219-1.013672h-0.001953z" style="fill:#ffffff;opacity:.2"/>
 <path d="m20.771484 13.869141c-1.792865 0.307008-8.459941 4.88209-8.328125 13.11914 0.389725-7.611522 6.608525-11.826631 8.328125-12.121093v0.001953c0.235883-0.040386 0.380361-0.004348 0.419922 0.103515 0.008752-0.313805 0.004975-0.612589 0.017578-0.93164 0.0066-0.165127-0.155071-0.22023-0.4375-0.171875zm0.386719 3.833984c-0.035662 7.410446 1.101892 13.688833 3.742188 22.583984 0.183777 0.029661 0.291801 0.002366 0.251953-0.128906-2.709441-8.970841-3.92488-15.227593-3.994141-22.455078zm-13.128906 11.769531c-0.4291531-0.056902-1.0929988 1.909941-1.015625 4.621094 0.0851392-2.18 0.6411836-3.670742 1.015625-3.621094 0.032861 0.00436 0.0622289 0.020288 0.0917969 0.048828 6.2494962 5.980738 11.935171 9.549473 21.355468 13.878907 0.659278-0.304214 0.965157-0.549402 0.728516-0.658203-1.84671-0.839047-3.511802-1.644418-5.103516-2.44336-0.339067 0.132578-2.145643-0.819976-4.269531-2.265625-4.789896-2.731143-8.628904-5.605232-12.710937-9.511719-0.029568-0.02854-0.0589359-0.044468-0.0917969-0.048828z" style="fill:#ffffff;opacity:.1"/>
</svg>

<svg xmlns="http://www.w3.org/2000/svg" width="64" height="64" version="1.1" viewBox="0 0 64 64">
 <path style="opacity:0.2" d="M 50.003182,5.0049993 C 42.177953,5.0962767 30.105203,7.2889538 26.33148,11.821356 l -0.0118,0 C 23.308566,16.233922 22.928439,33.502371 23.710405,32.438395 30.118927,23.671782 45.477705,12.844362 54.651587,8.4932555 59.604509,6.133466 56.089472,4.9338809 50.003182,5.0049993 Z M 20.772926,14.868209 c -1.977003,0.338541 -9.913294,5.853179 -8.085879,15.761605 l 0.0039,0.004 c 1.734634,5.062151 12.845441,11.79424 12.460848,10.527267 -3.155788,-10.448676 -4.29724,-17.211495 -3.945284,-26.120904 0.0066,-0.165127 -0.151159,-0.220228 -0.433591,-0.171873 z m 21.671717,4.437469 c -5.296127,0.384347 -14.608916,9.473885 -13.300683,9.421806 10.832819,-0.37662 17.598954,0.246538 26.050591,2.894511 1.253857,0.392077 -1.353726,-11.425938 -12.749908,-12.316317 z m -5.730426,9.460867 c -0.275548,0.0152 -0.394173,0.09174 -0.30078,0.226563 6.190459,8.963447 9.339862,15.031813 11.722571,23.624828 0.353845,1.274701 8.78609,-7.346952 3.33982,-17.476437 -2.791886,-3.743241 -12.794371,-6.475967 -14.757705,-6.374954 l -0.004,0 z m -28.6833863,1.70702 c -1.018752,-0.135079 -3.4087265,11.080592 6.1093303,16.781128 4.921256,2.022118 17.263548,-1.961232 16.066291,-2.5117 C 20.327551,40.25455 14.53614,36.66001 8.1206739,30.520441 c -0.029568,-0.02854 -0.056981,-0.04252 -0.089843,-0.04688 z m 31.9099243,5.476522 c -0.0612,-0.016 -0.104819,0.014 -0.124999,0.09374 -2.742302,10.570333 -5.274155,16.931027 -10.20305,24.339667 -0.736548,1.093152 11.243379,1.962938 15.343639,-8.79681 l 0.004,0.004 c 1.07781,-4.902695 -4.101414,-15.398319 -5.019496,-15.640513 z m -3.011696,6.753857 c -0.02504,-0.0062 -0.05306,-0.002 -0.08984,0.0156 -9.780843,4.714538 -16.233066,6.8742 -25.038881,7.847599 -1.300011,0.150659 5.767792,9.93989 16.570192,6.160112 l 0.0118,-0.004 c 4.554995,-2.411729 9.326995,-13.822594 8.55072,-14.019431 l -0.004,0 z"/>
 <path style="fill:#37a0f2" d="m 50.001326,4.0028473 c -7.825229,0.091277 -19.897805,2.284191 -23.671528,6.8165937 l -0.0082,0 C 23.310404,15.232006 22.927061,32.500775 23.709027,31.436799 30.117549,22.670187 45.477721,11.842819 54.651603,7.4917124 59.604525,5.1319231 56.087756,3.9318688 50.001466,4.0029873 Z M 42.445549,18.30354 c -5.296127,0.384348 -14.61154,9.474578 -13.303307,9.422498 10.832819,-0.376619 17.599128,0.247724 26.050765,2.895697 1.253857,0.392077 -1.350998,-11.427674 -12.74718,-12.318055 z m -5.729334,9.463518 c -0.279384,0.0146 -0.395109,0.08854 -0.30112,0.224218 6.190459,8.963447 9.336384,15.034277 11.719093,23.627293 0.353845,1.274701 8.788314,-7.347743 3.342044,-17.477225 -2.793138,-3.744919 -12.803153,-6.477661 -14.760155,-6.374062 z m 3.222732,7.183106 c -0.0612,-0.016 -0.104599,0.0132 -0.124779,0.09298 -2.742302,10.570333 -5.273765,16.932637 -10.20266,24.341278 -0.736548,1.093152 11.246025,1.960657 15.346285,-8.799091 l 0.0028,0.0054 c 1.07781,-4.902694 -4.102898,-15.399668 -5.02098,-15.641862 z m -3.00842,6.753735 c -0.02504,-0.0062 -0.05546,-0.0013 -0.09224,0.0164 -9.780843,4.714537 -16.23242,6.874132 -25.038235,7.847531 -1.300011,0.150659 5.76753,9.937406 16.56993,6.157627 l 0.0108,-0.0028 c 4.554995,-2.411728 9.326803,-13.822464 8.550528,-14.019298 z"/>
 <path style="fill:#4f4f4f" d="M 20.771303,13.868436 C 18.7943,14.206976 10.8599,19.72087 12.687315,29.629296 l 0.0028,0.0054 c 1.734634,5.062152 12.847043,11.791389 12.46245,10.524416 -3.155788,-10.448676 -4.296239,-17.208431 -3.944284,-26.11784 0.0066,-0.165127 -0.154319,-0.220622 -0.436748,-0.172267 z M 8.0295393,29.472501 C 7.0107873,29.337422 4.6233282,40.554803 14.141385,46.25534 19.062641,48.277457 31.403003,44.293002 30.205746,43.742534 20.326846,39.25409 14.53723,35.661209 8.1217643,29.521639 c -0.029568,-0.02854 -0.059372,-0.04486 -0.092233,-0.04922 z"/>
 <path style="fill:#ffffff;opacity:0.2" d="M 50.001953 4.0019531 C 42.176724 4.0932301 30.103801 6.2879098 26.330078 10.820312 L 26.322266 10.820312 C 24.017449 14.197761 23.254593 25.081744 23.373047 29.537109 C 23.371762 24.643694 24.166549 14.977319 26.322266 11.818359 L 26.330078 11.818359 C 30.103801 7.2859565 42.176724 5.0932301 50.001953 5.0019531 C 53.411859 4.9621083 56.012289 5.3219687 56.771484 6.0605469 C 57.845345 4.6529931 54.698125 3.9490313 50.001953 4.0039062 L 50.001953 4.0019531 z M 42.445312 18.302734 C 37.149186 18.687082 27.834345 27.778642 29.142578 27.726562 C 29.299928 27.721092 29.438098 27.719889 29.59375 27.714844 C 31.55931 25.353621 38.252577 19.607008 42.445312 19.302734 C 51.448129 20.006122 54.952336 27.511222 55.414062 30.447266 C 55.932383 29.06741 52.878078 19.117844 42.445312 18.302734 z M 36.865234 28.65625 C 36.895494 28.700462 36.921062 28.743035 36.951172 28.787109 C 39.269187 28.834713 48.759189 31.497287 51.476562 35.140625 C 52.673078 37.366017 53.197649 39.518817 53.287109 41.509766 C 53.349059 39.246734 52.877238 36.745733 51.476562 34.140625 C 49.82747 31.929593 45.67648 30.092845 42.138672 28.962891 C 40.452741 28.806359 38.715044 28.699632 36.865234 28.65625 z M 39.939453 34.949219 C 39.878253 34.933219 39.834633 34.963189 39.814453 35.042969 C 37.072151 45.613302 34.540223 51.976125 29.611328 59.384766 C 29.510291 59.534721 29.665767 59.677031 29.990234 59.789062 C 34.660278 52.633322 37.14668 46.326027 39.814453 36.042969 C 39.834633 35.963189 39.878253 35.933219 39.939453 35.949219 C 40.742775 36.161138 44.809674 44.222612 45.091797 49.519531 C 45.35197 44.310397 40.795416 35.175026 39.939453 34.949219 z M 36.929688 41.703125 C 36.904648 41.696925 36.874671 41.703003 36.837891 41.720703 C 27.057048 46.43524 20.606596 48.59496 11.800781 49.568359 C 11.552629 49.597118 11.612003 49.97923 11.941406 50.548828 C 20.673433 49.567789 27.110676 47.40939 36.837891 42.720703 C 36.845728 42.716931 36.850152 42.719423 36.857422 42.716797 C 37.023429 42.120858 37.065342 41.737026 36.931641 41.703125 L 36.929688 41.703125 z"/>
 <path style="fill:#ffffff;opacity:0.1" d="M 20.771484 13.869141 C 18.978619 14.176149 12.311543 18.751231 12.443359 26.988281 C 12.833084 19.376759 19.051884 15.16165 20.771484 14.867188 L 20.771484 14.869141 C 21.007367 14.828755 21.151845 14.864793 21.191406 14.972656 C 21.200158 14.658851 21.196381 14.360067 21.208984 14.041016 C 21.215584 13.875889 21.053913 13.820786 20.771484 13.869141 z M 21.158203 17.703125 C 21.122541 25.113571 22.260095 31.391958 24.900391 40.287109 C 25.084168 40.31677 25.192192 40.289475 25.152344 40.158203 C 22.442903 31.187362 21.227464 24.93061 21.158203 17.703125 z M 8.0292969 29.472656 C 7.6001438 29.415754 6.9362981 31.382597 7.0136719 34.09375 C 7.0988111 31.91375 7.6548555 30.423008 8.0292969 30.472656 C 8.0621579 30.477016 8.0915258 30.492944 8.1210938 30.521484 C 14.37059 36.502222 20.056265 40.070957 29.476562 44.400391 C 30.13584 44.096177 30.441719 43.850989 30.205078 43.742188 C 28.358368 42.903141 26.693276 42.09777 25.101562 41.298828 C 24.762495 41.431406 22.955919 40.478852 20.832031 39.033203 C 16.042135 36.30206 12.203127 33.427971 8.1210938 29.521484 C 8.0915258 29.492944 8.0621579 29.477016 8.0292969 29.472656 z"/>
</svg>
